communes/5623.svg

<?xml version="1.0" encoding="UTF-8"?>
<svg version="1.0" viewBox="0 0 603 763" xmlns="http://www.w3.org/2000/svg" xmlns:cc="http://creativecommons.org/ns#" xmlns:dc="http://purl.org/dc/elements/1.1/" xmlns:rdf="http://www.w3.org/1999/02/22-rdf-syntax-ns#" xmlns:xlink="http://www.w3.org/1999/xlink">
<metadata>
<rdf:RDF>
<cc:Work rdf:about="">
<dc:format>image/svg+xml</dc:format>
<dc:type rdf:resource="http://purl.org/dc/dcmitype/StillImage"/>
<dc:date>07-AUG-2006</dc:date>
<dc:creator>
<cc:Agent>
<dc:title>Jérôme BLUM (wagner51)</dc:title>
</cc:Agent>
</dc:creator>
<cc:license rdf:resource="http://creativecommons.org/licenses/GPL/2.0/"/>
<dc:coverage/>
<dc:description>Gabarit pour le Projet:Blasons de WIkipédia</dc:description>
<dc:subject>
<rdf:Bag>
<rdf:li>blason suisse modèle gabarit projet blasons</rdf:li>
</rdf:Bag>
</dc:subject>
<dc:language>fr</dc:language>
<dc:title>Gabrit d'un blason suisse</dc:title>
</cc:Work>
<cc:License rdf:about="http://creativecommons.org/licenses/GPL/2.0/">
<cc:permits rdf:resource="http://web.resource.org/cc/Reproduction"/>
<cc:permits rdf:resource="http://web.resource.org/cc/Distribution"/>
<cc:requires rdf:resource="http://web.resource.org/cc/Notice"/>
<cc:permits rdf:resource="http://web.resource.org/cc/DerivativeWorks"/>
<cc:requires rdf:resource="http://web.resource.org/cc/ShareAlike"/>
<cc:requires rdf:resource="http://web.resource.org/cc/SourceCode"/>
</cc:License>
</rdf:RDF>
</metadata>
<defs>
<radialGradient id="a" cx="858.04" cy="579.93" r="300" gradientTransform="matrix(1.215 1.5316e-24 1.4647e-23 1.2667 -839.19 -490.49)" gradientUnits="userSpaceOnUse">
<stop stop-color="#fff" stop-opacity=".31373" offset="0"/>
<stop stop-color="#fff" stop-opacity=".25098" offset=".19"/>
<stop stop-color="#6b6b6b" stop-opacity=".12549" offset=".6"/>
<stop stop-opacity=".12549" offset="1"/>
</radialGradient>
</defs>
<desc>Coat of Arms of Canton of Freiburg (Fribourg)</desc>
<g>
<path d="m1.5 1.5v458.87c0 166.31 134.31 301.13 300 301.13 165.69 0 300-134.82 300-301.13v-458.87h-600z" fill="#e20909"/>
<g fill="#fcef3c" stroke="#000" stroke-width="3">
<path d="m421.7 258.25 7.253 1.046 2.717 6.805c-19.466 27.55-246.14 322.48-251.32 329.06-5.183 6.583-7.59 0.24-10.615 4.083l-25.487 32.36c-3.887 4.937-7.232 7.41-11.623 3.954-4.39-3.458-2.769-7.289 1.119-12.227l25.487-32.361c3.025-3.841-3.703-4.694 1.48-11.275 5.184-6.581 238.78-296.07 260.99-321.45z"/>
<path d="m525.76 96.709c3.678-0.437 9.252 1.51 22.088 11.618 12.836 10.109 16.035 15.072 16.473 18.75 0.436 3.678-15.97 25.638-39.296 55.257-23.326 29.618-66.083 63.596-78.77 72.934-12.687 9.337-14.591 10.838-14.591 10.838l-9.97-7.852s1.013-2.202 7.117-16.724 29.115-64.051 52.442-93.67c23.327-29.617 40.83-50.714 44.507-51.151z"/>
<path d="m180.38 258.25-7.252 1.046-2.717 6.805c19.466 27.549 246.14 322.48 251.33 329.06 5.183 6.583 7.59 0.24 10.615 4.083l25.486 32.36c3.888 4.937 7.232 7.41 11.623 3.954 4.391-3.458 2.769-7.289-1.118-12.227l-25.487-32.361c-3.025-3.841 3.703-4.694-1.479-11.275-5.186-6.581-238.78-296.07-261-321.45z"/>
<path d="m76.316 96.709c-3.677-0.437-9.252 1.51-22.088 11.618-12.835 10.109-16.035 15.072-16.472 18.75-0.436 3.678 15.969 25.638 39.295 55.257 23.326 29.618 66.083 63.596 78.77 72.934 12.687 9.337 14.59 10.838 14.59 10.838l9.97-7.852s-1.012-2.202-7.117-16.724c-6.104-14.522-29.115-64.051-52.441-93.67-23.326-29.617-40.83-50.714-44.507-51.151z"/>
</g>
<path d="m409.76 72.561s-57.685-22.161-108.26-22.161c-50.579 0-108.26 22.161-108.26 22.161s-6.518 32.264-6.518 65.506 6.518 65.505 6.518 65.505 57.684 22.162 108.26 22.162c50.578 0 108.26-22.162 108.26-22.162s6.519-32.264 6.519-65.505-6.519-65.506-6.519-65.506z" fill="#fcef3c"/>
<path d="m412.09 86.271c-16.998-4.819-66.319-17.621-110.59-17.621s-93.593 12.802-110.59 17.622" fill="none" stroke="#000" stroke-width="3"/>
<path d="m415.16 112.61c-13.166-1.928-66.305-9.253-113.66-9.253-47.361 0-100.5 7.325-113.66 9.253" fill="none" stroke="#000" stroke-width="3"/>
<path d="m416.28 138.07h-114.78-114.78" fill="none" stroke="#000" stroke-width="3"/>
<path d="m415.27 163.5c-12.979 1.903-66.281 9.27-113.77 9.27-47.36 0-100.5-7.325-113.66-9.253" fill="none" stroke="#000" stroke-width="3"/>
<path d="m412.09 189.86c-16.999 4.82-66.319 17.621-110.59 17.621s-93.591-12.802-110.59-17.621" fill="none" stroke="#000" stroke-width="3"/>
<path d="m325.28 51.831c0.196 2.112 4.024 43.854 4.024 86.235s-3.828 84.123-4.024 86.235c5.017-0.568 10.007-1.284 14.907-2.104 0.962-11.262 3.782-47.445 3.782-84.131s-2.82-72.869-3.782-84.131c-4.9-0.82-9.89-1.535-14.907-2.104zm71.651 16.265c-4.401-1.436-9.774-3.104-15.866-4.834l0.595 2.946c0.071 0.355 7.148 35.868 7.148 71.858s-7.077 71.503-7.148 71.858l-0.595 2.946c6.092-1.729 11.465-3.398 15.866-4.834 1.983-11.137 6.543-39.985 6.543-69.971s-4.56-58.832-6.543-69.969zm-174.99-4.834c-6.092 1.729-11.464 3.398-15.866 4.834-1.984 11.137-6.543 39.984-6.543 69.97s4.559 58.833 6.543 69.97c4.401 1.436 9.774 3.105 15.866 4.834l-0.594-2.946c-0.071-0.355-7.149-35.868-7.149-71.858s7.078-71.503 7.149-71.858l0.594-2.946zm40.877-9.327c-0.961 11.262-3.782 47.445-3.782 84.131s2.821 72.869 3.782 84.131c4.901 0.82 9.89 1.536 14.908 2.104-0.197-2.113-4.024-43.855-4.024-86.235s3.828-84.122 4.024-86.235c-5.018 0.569-10.007 1.284-14.908 2.104z" fill="#fcef3c"/>
<path d="m340.18 222.2c0.962-11.262 3.782-47.445 3.782-84.131s-2.82-72.869-3.782-84.131" fill="none" stroke="#000" stroke-width="3"/>
<path d="m381.06 212.87 0.595-2.946c0.071-0.355 7.148-35.868 7.148-71.858s-7.077-71.503-7.148-71.858l-0.595-2.946" fill="none" stroke="#000" stroke-width="3"/>
<path d="m396.93 208.04c1.983-11.137 6.543-39.985 6.543-69.971s-4.56-58.833-6.543-69.971" fill="none" stroke="#000" stroke-width="3"/>
<path d="m325.28 224.3c0.196-2.112 4.024-43.854 4.024-86.235s-3.828-84.123-4.024-86.235" fill="none" stroke="#000" stroke-width="3"/>
<path d="m221.94 63.262-0.594 2.946c-0.071 0.355-7.149 35.868-7.149 71.858s7.078 71.503 7.149 71.858l0.594 2.946" fill="none" stroke="#000" stroke-width="3"/>
<path d="m277.72 51.831c-0.197 2.113-4.024 43.855-4.024 86.235s3.828 84.122 4.024 86.235" fill="none" stroke="#000" stroke-width="3"/>
<path d="m206.07 68.097c-1.984 11.137-6.543 39.984-6.543 69.97s4.559 58.833 6.543 69.97" fill="none" stroke="#000" stroke-width="3"/>
<path d="m262.82 53.935c-0.961 11.262-3.782 47.445-3.782 84.131s2.821 72.869 3.782 84.131" fill="none" stroke="#000" stroke-width="3"/>
<path d="m409.76 72.561s-57.685-22.161-108.26-22.161c-50.579 0-108.26 22.161-108.26 22.161s-6.518 32.264-6.518 65.506 6.518 65.505 6.518 65.505 57.684 22.162 108.26 22.162c50.578 0 108.26-22.162 108.26-22.162s6.519-32.264 6.519-65.505-6.519-65.506-6.519-65.506z" fill="none" stroke="#000" stroke-width="3"/>
</g>
<g>
<path d="m1.5 1.5v458.87c0 166.31 134.31 301.13 300 301.13 165.69 0 300-134.82 300-301.13v-458.87h-600z" fill="url(#a)"/>
<path d="m1.5 1.5v458.87c0 166.31 134.31 301.13 300 301.13 165.69 0 300-134.82 300-301.13v-458.87h-600z" fill="none" stroke="#000" stroke-width="3"/>
</g>
</svg>

<?xml version="1.0" encoding="UTF-8" standalone="no"?>
<svg
   xmlns:dc="http://purl.org/dc/elements/1.1/"
   xmlns:cc="http://creativecommons.org/ns#"
   xmlns:rdf="http://www.w3.org/1999/02/22-rdf-syntax-ns#"
   xmlns:svg="http://www.w3.org/2000/svg"
   xmlns="http://www.w3.org/2000/svg"
   xmlns:xlink="http://www.w3.org/1999/xlink"
   xmlns:sodipodi="http://sodipodi.sourceforge.net/DTD/sodipodi-0.dtd"
   xmlns:inkscape="http://www.inkscape.org/namespaces/inkscape"
   height="763"
   width="603"
   version="1.0"
   id="svg20"
   sodipodi:version="0.32"
   inkscape:version="0.46"
   sodipodi:docname="Buchillon-coat_of_arms.svg"
   sodipodi:docbase="C:\Documents and Settings\Steve\Bureau\Blason Villages Suisse pour Wikipédia (par Delta-9)"
   inkscape:output_extension="org.inkscape.output.svg.inkscape">
  <metadata
     id="metadata31">
    <rdf:RDF>
      <cc:Work
         rdf:about="">
        <dc:format>image/svg+xml</dc:format>
        <dc:type
           rdf:resource="http://purl.org/dc/dcmitype/StillImage" />
        <dc:date>07-AUG-2006</dc:date>
        <dc:creator>
          <cc:Agent>
            <dc:title>Jérôme BLUM (wagner51)</dc:title>
          </cc:Agent>
        </dc:creator>
        <cc:license
           rdf:resource="http://creativecommons.org/licenses/GPL/2.0/" />
        <dc:coverage />
        <dc:description>Gabarit pour le Projet:Blasons de WIkipédia</dc:description>
        <dc:subject>
          <rdf:Bag>
            <rdf:li>blason suisse modèle gabarit projet blasons</rdf:li>
          </rdf:Bag>
        </dc:subject>
        <dc:language>fr</dc:language>
        <dc:title>Gabrit d'un blason suisse</dc:title>
      </cc:Work>
      <cc:License
         rdf:about="http://creativecommons.org/licenses/GPL/2.0/">
        <cc:permits
           rdf:resource="http://web.resource.org/cc/Reproduction" />
        <cc:permits
           rdf:resource="http://web.resource.org/cc/Distribution" />
        <cc:requires
           rdf:resource="http://web.resource.org/cc/Notice" />
        <cc:permits
           rdf:resource="http://web.resource.org/cc/DerivativeWorks" />
        <cc:requires
           rdf:resource="http://web.resource.org/cc/ShareAlike" />
        <cc:requires
           rdf:resource="http://web.resource.org/cc/SourceCode" />
      </cc:License>
    </rdf:RDF>
  </metadata>
  <defs
     id="defs29"><inkscape:perspective
   sodipodi:type="inkscape:persp3d"
   inkscape:vp_x="0 : 381.5 : 1"
   inkscape:vp_y="0 : 1000 : 0"
   inkscape:vp_z="603 : 381.5 : 1"
   inkscape:persp3d-origin="301.5 : 254.33333 : 1"
   id="perspective28" />
<linearGradient
   id="linearGradient2893">
  <stop
     style="stop-color:#ffffff;stop-opacity:0.3137255;"
     offset="0"
     id="stop2895" />
  <stop
     id="stop2897"
     offset="0.19"
     style="stop-color:#ffffff;stop-opacity:0.25098041;" />
  <stop
     style="stop-color:#6b6b6b;stop-opacity:0.1254902;"
     offset="0.60000002"
     id="stop2901" />
  <stop
     style="stop-color:#000000;stop-opacity:0.1254902;"
     offset="1"
     id="stop2899" />
</linearGradient>
<linearGradient
   id="linearGradient2955">
  <stop
     style="stop-color:white;stop-opacity:0;"
     offset="0"
     id="stop2965" />
  <stop
     style="stop-color:black;stop-opacity:0.64583331;"
     offset="1"
     id="stop2959" />
</linearGradient>
<radialGradient
   inkscape:collect="always"
   xlink:href="#linearGradient2893"
   id="radialGradient3236"
   gradientUnits="userSpaceOnUse"
   gradientTransform="matrix(1.215027,1.531577e-24,1.464684e-23,1.266667,-839.1924,-490.4894)"
   cx="858.04236"
   cy="579.93323"
   fx="858.04236"
   fy="579.93323"
   r="300" />
<inkscape:perspective
   id="perspective2564"
   inkscape:persp3d-origin="297.63751 : 280.63 : 1"
   inkscape:vp_z="595.27502 : 420.94501 : 1"
   inkscape:vp_y="0 : 1000 : 0"
   inkscape:vp_x="0 : 420.94501 : 1"
   sodipodi:type="inkscape:persp3d" />

	
	

	

		
		
		
		
		
	
		
		
	
			
			
		
			
			
		
			
			
			
			
			
			
			
			
		
			
			
			
			
			
		</defs>
  <sodipodi:namedview
     inkscape:window-height="968"
     inkscape:window-width="1280"
     inkscape:pageshadow="2"
     inkscape:pageopacity="0.0"
     guidetolerance="10.0"
     gridtolerance="10.0"
     objecttolerance="10.0"
     borderopacity="1.0"
     bordercolor="#666666"
     pagecolor="#ffffff"
     id="base"
     inkscape:zoom="0.92652193"
     inkscape:cx="173.53758"
     inkscape:cy="399.00713"
     inkscape:window-x="1280"
     inkscape:window-y="22"
     inkscape:current-layer="layer2"
     showgrid="false"
     showguides="true"
     inkscape:guide-bbox="true">
    <sodipodi:guide
       orientation="horizontal"
       position="761.5"
       id="guide1885" />
    <sodipodi:guide
       orientation="vertical"
       position="1.5"
       id="guide1887" />
    <sodipodi:guide
       orientation="horizontal"
       position="1.5"
       id="guide1889" />
    <sodipodi:guide
       orientation="vertical"
       position="601.5"
       id="guide1891" />
    <sodipodi:guide
       orientation="vertical"
       position="301.50081"
       id="guide1893" />
  </sodipodi:namedview>
  <desc
     id="desc22">Coat of Arms of Canton of Freiburg (Fribourg)</desc>
  <g
     inkscape:groupmode="layer"
     id="layer1"
     inkscape:label="Fond écu"
     style="opacity:1;display:inline"
     sodipodi:insensitive="true">
    <path
       id="path1899"
       d="M 1.5,1.49998 L 1.5,460.3679 C 1.5,626.6785 135.81456,761.5 301.49999,761.5 C 467.18543,761.5 601.5,626.6785 601.5,460.3679 L 601.5,1.49998 L 1.5,1.49998 z"
       style="fill:#e20909;fill-opacity:1" />
  </g>
  <g
     inkscape:groupmode="layer"
     id="layer2"
     inkscape:label="Meubles"
     style="opacity:1;display:inline"
     sodipodi:insensitive="true">
    <g
       id="g2716">
      <path
         style="fill:#fcef3c;stroke:#000000;stroke-width:3"
         d="M 421.695,258.254 C 428.948,259.3 428.948,259.3 428.948,259.3 C 428.948,259.3 428.948,259.3 431.665,266.105 C 412.199,293.655 185.525,588.587 180.34,595.169 C 175.157,601.752 172.75,595.409 169.725,599.252 L 144.238,631.612 C 140.351,636.549 137.006,639.022 132.615,635.566 C 128.225,632.108 129.846,628.277 133.734,623.339 L 159.221,590.978 C 162.246,587.137 155.518,586.284 160.701,579.703 C 165.885,573.122 399.477,283.635 421.695,258.254 z"
         id="path2511" />
      <path
         style="fill:#fcef3c;stroke:#000000;stroke-width:3"
         d="M 525.761,96.709 C 529.439,96.272 535.013,98.219 547.849,108.327 C 560.685,118.436 563.884,123.399 564.322,127.077 C 564.758,130.755 548.352,152.715 525.026,182.334 C 501.7,211.952 458.943,245.93 446.256,255.268 C 433.569,264.605 431.665,266.106 431.665,266.106 L 421.695,258.254 C 421.695,258.254 422.708,256.052 428.812,241.53 C 434.916,227.008 457.927,177.479 481.254,147.86 C 504.581,118.243 522.084,97.146 525.761,96.709 z"
         id="path2513" />
      <path
         style="fill:#fcef3c;stroke:#000000;stroke-width:3"
         d="M 180.381,258.254 C 173.129,259.3 173.129,259.3 173.129,259.3 C 173.129,259.3 173.129,259.3 170.412,266.105 C 189.878,293.654 416.553,588.587 421.738,595.169 C 426.921,601.752 429.328,595.409 432.353,599.252 L 457.839,631.612 C 461.727,636.549 465.071,639.022 469.462,635.566 C 473.853,632.108 472.231,628.277 468.344,623.339 L 442.857,590.978 C 439.832,587.137 446.56,586.284 441.378,579.703 C 436.192,573.122 202.602,283.635 180.381,258.254 z"
         id="path2517" />
      <path
         style="fill:#fcef3c;stroke:#000000;stroke-width:3"
         d="M 76.316,96.709 C 72.639,96.272 67.064,98.219 54.228,108.327 C 41.393,118.436 38.193,123.399 37.756,127.077 C 37.32,130.755 53.725,152.715 77.051,182.334 C 100.377,211.952 143.134,245.93 155.821,255.268 C 168.508,264.605 170.411,266.106 170.411,266.106 L 180.381,258.254 C 180.381,258.254 179.369,256.052 173.264,241.53 C 167.16,227.008 144.149,177.479 120.823,147.86 C 97.497,118.243 79.993,97.146 76.316,96.709 z"
         id="path2519" />
    </g>
    <g
       id="g2698">
      <path
         id="path2523"
         d="M 409.762,72.561 C 409.762,72.561 352.077,50.4 301.499,50.4 C 250.92,50.4 193.236,72.561 193.236,72.561 C 193.236,72.561 186.718,104.825 186.718,138.067 C 186.718,171.309 193.236,203.572 193.236,203.572 C 193.236,203.572 250.92,225.734 301.499,225.734 C 352.077,225.734 409.762,203.572 409.762,203.572 C 409.762,203.572 416.281,171.308 416.281,138.067 C 416.281,104.826 409.762,72.561 409.762,72.561 z"
         style="fill:#fcef3c" />
      <path
         style="fill:none;stroke:#000000;stroke-width:3"
         d="M 412.09,86.271 C 395.092,81.452 345.771,68.65 301.499,68.65 C 257.227,68.65 207.906,81.452 190.908,86.272"
         id="path2527" />
      <path
         style="fill:none;stroke:#000000;stroke-width:3"
         d="M 415.164,112.612 C 401.998,110.684 348.859,103.359 301.499,103.359 C 254.138,103.359 200.999,110.684 187.835,112.612"
         id="path2529" />
      <path
         style="fill:none;stroke:#000000;stroke-width:3"
         d="M 416.28,138.067 C 405.327,138.067 350.341,138.067 301.499,138.067 C 252.657,138.067 197.67,138.067 186.719,138.067"
         id="path2531" />
      <path
         style="fill:none;stroke:#000000;stroke-width:3"
         d="M 415.273,163.505 C 402.294,165.408 348.992,172.775 301.5,172.775 C 254.14,172.775 201.002,165.45 187.836,163.522"
         id="path2533" />
      <path
         style="fill:none;stroke:#000000;stroke-width:3"
         d="M 412.089,189.862 C 395.09,194.682 345.77,207.483 301.499,207.483 C 257.228,207.483 207.908,194.681 190.909,189.862"
         id="path2535" />
      <path
         id="path2537"
         d="M 325.275,51.831 C 325.471,53.943 329.299,95.685 329.299,138.066 C 329.299,180.447 325.471,222.189 325.275,224.301 C 330.292,223.733 335.282,223.017 340.182,222.197 C 341.144,210.935 343.964,174.752 343.964,138.066 C 343.964,101.38 341.144,65.197 340.182,53.935 C 335.282,53.115 330.292,52.4 325.275,51.831 z M 396.926,68.096 C 392.525,66.66 387.152,64.992 381.06,63.262 L 381.655,66.208 C 381.726,66.563 388.803,102.076 388.803,138.066 C 388.803,174.056 381.726,209.569 381.655,209.924 L 381.06,212.87 C 387.152,211.141 392.525,209.472 396.926,208.036 C 398.909,196.899 403.469,168.051 403.469,138.065 C 403.469,108.079 398.909,79.233 396.926,68.096 z M 221.938,63.262 C 215.846,64.991 210.474,66.66 206.072,68.096 C 204.088,79.233 199.529,108.08 199.529,138.066 C 199.529,168.052 204.088,196.899 206.072,208.036 C 210.473,209.472 215.846,211.141 221.938,212.87 L 221.344,209.924 C 221.273,209.569 214.195,174.056 214.195,138.066 C 214.195,102.076 221.273,66.563 221.344,66.208 L 221.938,63.262 z M 262.815,53.935 C 261.854,65.197 259.033,101.38 259.033,138.066 C 259.033,174.752 261.854,210.935 262.815,222.197 C 267.716,223.017 272.705,223.733 277.723,224.301 C 277.526,222.188 273.699,180.446 273.699,138.066 C 273.699,95.686 277.527,53.944 277.723,51.831 C 272.705,52.4 267.716,53.115 262.815,53.935 z"
         style="fill:#fcef3c" />
      <path
         style="fill:none;stroke:#000000;stroke-width:3"
         d="M 340.183,222.198 C 341.145,210.936 343.965,174.753 343.965,138.067 C 343.965,101.381 341.145,65.198 340.183,53.936"
         id="path2541" />
      <path
         style="fill:none;stroke:#000000;stroke-width:3"
         d="M 381.06,212.872 L 381.655,209.926 C 381.726,209.571 388.803,174.058 388.803,138.068 C 388.803,102.078 381.726,66.565 381.655,66.21 L 381.06,63.264"
         id="path2543" />
      <path
         style="fill:none;stroke:#000000;stroke-width:3"
         d="M 396.926,208.038 C 398.909,196.901 403.469,168.053 403.469,138.067 C 403.469,108.081 398.909,79.234 396.926,68.096"
         id="path2545" />
      <path
         style="fill:none;stroke:#000000;stroke-width:3"
         d="M 325.275,224.302 C 325.471,222.19 329.299,180.448 329.299,138.067 C 329.299,95.686 325.471,53.944 325.275,51.832"
         id="path2547" />
      <path
         style="fill:none;stroke:#000000;stroke-width:3"
         d="M 221.938,63.262 L 221.344,66.208 C 221.273,66.563 214.195,102.076 214.195,138.066 C 214.195,174.056 221.273,209.569 221.344,209.924 L 221.938,212.87"
         id="path2549" />
      <path
         style="fill:none;stroke:#000000;stroke-width:3"
         d="M 277.723,51.831 C 277.526,53.944 273.699,95.686 273.699,138.066 C 273.699,180.446 277.527,222.188 277.723,224.301"
         id="path2551" />
      <path
         style="fill:none;stroke:#000000;stroke-width:3"
         d="M 206.072,68.097 C 204.088,79.234 199.529,108.081 199.529,138.067 C 199.529,168.053 204.088,196.9 206.072,208.037"
         id="path2553" />
      <path
         style="fill:none;stroke:#000000;stroke-width:3"
         d="M 262.815,53.935 C 261.854,65.197 259.033,101.38 259.033,138.066 C 259.033,174.752 261.854,210.935 262.815,222.197"
         id="path2555" />
      <path
         id="path2557"
         d="M 409.762,72.561 C 409.762,72.561 352.077,50.4 301.499,50.4 C 250.92,50.4 193.236,72.561 193.236,72.561 C 193.236,72.561 186.718,104.825 186.718,138.067 C 186.718,171.309 193.236,203.572 193.236,203.572 C 193.236,203.572 250.92,225.734 301.499,225.734 C 352.077,225.734 409.762,203.572 409.762,203.572 C 409.762,203.572 416.281,171.308 416.281,138.067 C 416.281,104.826 409.762,72.561 409.762,72.561 z"
         style="fill:none;stroke:#000000;stroke-width:3" />
    </g>
  </g>
  <g
     inkscape:groupmode="layer"
     id="layer3"
     inkscape:label="Reflet final"
     style="display:inline"
     sodipodi:insensitive="true">
    <path
       style="fill:url(#radialGradient3236);fill-opacity:1"
       d="M 1.5,1.5 L 1.5,460.3679 C 1.5,626.67854 135.81454,761.5 301.49993,761.5 C 467.1854,761.5 601.5,626.67854 601.5,460.3679 L 601.5,1.5 L 1.5,1.5 z "
       id="path2346" />
  </g>
  <g
     inkscape:groupmode="layer"
     id="layer4"
     inkscape:label="Contour final"
     style="display:inline"
     sodipodi:insensitive="true">
    <path
       style="fill:none;fill-opacity:1;stroke:#000000;stroke-width:3;stroke-miterlimit:4;stroke-dasharray:none;stroke-opacity:1"
       d="M 1.5,1.5 L 1.5,460.36794 C 1.5,626.67854 135.81454,761.5 301.49993,761.5 C 467.1854,761.5 601.5,626.67854 601.5,460.36794 L 601.5,1.5 L 1.5,1.5 z "
       id="path3239" />
  </g>
</svg>
